X:1
T:Title
%%score { ( 1 3 5 ) | ( 2 4 ) }
L:1/8
Q:1/4=90
M:4/4
K:Ab
V:1 treble nm="Grand Piano"
V:3 treble 
V:5 treble 
V:2 bass 
V:4 bass 
V:1
 [CE]>[Ec] [Fd]>[Ec] [=DB]2 [DF]2 | A>G F>G [CA]4 | [DF]>[EG] [FA]>[Fd] [Ec]2 [EA]2 | z4 B4 | %4
w: A.~H.~Ackley * * * * *||||
 [CE]>[Ec] [Fd]>[Ec] [=DB]2 [DF]2 | A>G F>G A4 | [=DB]>[DB] [Ac]>[A=d] [Ge]2 [EG]2 | %7
w: |||
 [EB]>[=DA] [DG]>[DF] E4 | [Ec]2 [Ec]2 (3[Ec][DB][CA] [CE]>[CA] | G>_G =G>_G =G4 | %10
w: |||
 [Gd]2 [Gd]2 (3dcB F>G | z4 [Ge]4[K:bass] | [Ec]2 [Ec]2 (3[Ec][DB][CA] B>c | %13
w: |||
 [Fe]>[Fd] [Fc]>[Fd] [DF]4 |[M:9/8] [CE]>[Ec][Ed]- [Ed]/[Ec]/ [FB]2 [Af]3 | %15
w: ||
[M:4/4] [Ae]>c (3dcB [CA]4 |] %16
w: |
V:2
 [A,,A,]>[A,,A,] [A,,A,]>[A,,A,] [B,,F,]2 [B,,B,]2 | [E,B,D]>[E,B,D] [E,A,D]>[E,B,D] [A,,A,]4 | %2
 [D,A,]>[D,A,] [D,D]>[D,A,] [A,,A,]2 [C,A,]2 | z4 E2 z2 | %4
 [A,,A,]>[A,,A,] [A,,A,]>[A,,A,] [B,,F,]2 [B,,B,]2 | [E,B,D]>[E,B,D] [E,B,D]>[E,B,D] [F,A,C]4 | %6
 [B,,F,]>[B,,F,] [B,,B,]>[B,,B,] [E,B,]2 [E,B,]2 | [B,,G,]>[B,,F,] [B,,B,]>[B,,A,] [E,G,]4 | %8
 [A,,A,]2 [A,,A,]2 (3[A,,A,][A,,A,][A,,A,] [A,,A,]>[A,,A,] | %9
 [E,B,D]>[E,=A,D] [E,B,D]>[E,A,D] [E,B,D]4 | %10
 [E,B,]2 [E,B,]2 (3[E,G,E][E,G,E][E,G,E] [E,A,D]>[E,B,D] | z4 B,4 | %12
 [A,,A,]2 [A,,A,]2 (3[A,,A,][A,,A,][A,,A,][K:treble] [A,C_G]>[A,G] | %13
 [D,A,]>[D,A,] [D,A,]>[D,A,] [D,A,]4 | %14
[M:9/8] [A,,A,]>[A,,A,][F,=A,]- [F,A,]/[F,A,]/ [D,B,]2 [=D,_C]3 | %15
[M:4/4] [E,C]>[E,A,E] (3[E,B,E][E,A,E][E,G,D] [A,,E,A,]4 |] %16
V:3
 x8 | x8 | x8 | [=DB]>[DF] [DB]>[Dc] z2 _D2 | x8 | x8 | x8 | x8 | x8 | x8 | x8 | %11
 G>B c>[A=d] (3z[K:bass] F,E,- E,2 | x8 | x8 |[M:9/8] x9 |[M:4/4] x8 |] %16
V:4
 x8 | x8 | x8 | [B,,A,]>[B,,A,] [B,,F,]>[B,,A,] [E,G,]4 | x8 | x8 | x8 | x8 | x8 | x8 | x8 | %11
 [F,A,C]>[E,G,E] [A,E]>[F,B,] E,2 z2 | x6[K:treble] x2 | x8 |[M:9/8] x9 |[M:4/4] x8 |] %16
V:5
 x8 | x8 | x8 | x8 | x8 | x8 | x8 | x8 | x8 | x8 | x8 | z4 z2[K:bass] (3D,C,B,, | x8 | x8 | %14
[M:9/8] x9 |[M:4/4] x8 |] %16

